X:1
T:Title
%%score { ( 1 3 ) | 2 }
L:1/8
M:6/8
K:Bb
V:1 treble nm="Grand Piano"
V:3 treble 
V:2 bass 
V:1
 z3 z2[Q:1/4=100] [DF] | [DF][DG][DA] [DB][Dc][DFB] | B2 A A2 A | A2 c G2 A | %4
[M:5/8] [DB]-[DB]- [DB]3 |[M:1/8] [DF] |[M:3/4] [DF][DG] [DA][DB] [Dc][DFB] | B2 A A2 A | %8
 [=EG]2 [EG] [Ec]2 [Ed] | c6 |[M:1/8] F |[M:3/4] [Fd]2 [Ec] [DB]2 [EG] | [DF]6 | %13
 [Ge]2 [Gd] [=Ec]2 [EB] |[M:5/8] [FA]-[FA]- [FA]3 |[M:1/8] G |[M:3/4] [DF]2 [_D=E] [=DF]2 [DF] | %17
 G2 e d2 d | c2 F F2 c |[M:5/8] [DB]-[DB]- [DB]3 |] %20
V:2
 z3 z2 [B,,B,] | [B,,B,][B,,B,][B,,B,] [B,,B,][B,,B,]B,, | [F,CE]2 [F,CE] [F,CE]2 [F,CE] | %3
 [F,CE]2 [F,A,E] [F,B,E]2 [F,CE] |[M:5/8] [B,,B,]-[B,,B,]- [B,,B,]3 |[M:1/8] [B,,B,] | %6
[M:3/4] [B,,B,][B,,B,] [B,,B,][B,,B,] [B,,B,]B,, | [F,CE]2 [F,CE] [F,CE]2 [F,CE] | %8
 [C,C]2 [C,C] [C,G,]2 [C,B,] | [F,A,F]2 [G,B,] [A,C]3 |[M:1/8] [F,A,E] | %11
[M:3/4] [B,,B,]2 [B,,B,] [B,,B,]2 [B,,B,] | [B,,B,]2 B,, B,,2 B,, | [E,B,]2 [E,B,] [C,C]2 [C,C] | %14
[M:5/8] [F,C]2 F, F,2 |[M:1/8] [F,A,E] |[M:3/4] [B,,B,]2 [B,,B,] [B,,B,]2 [B,,B,] | %17
 [E,B,E]2[K:treble] [G,B,E] [B,F]2 [B,F] | [F,A,E]2 [F,A,E] [F,A,E]2 [F,A,E] | %19
[M:5/8] [B,,B,]-[B,,B,]- [B,,B,]3 |] %20
V:3
 x6 | x6 | x6 | x6 |[M:5/8] x5 |[M:1/8] x |[M:3/4] x6 | x6 | x6 | z2 =E _E3 |[M:1/8] x | %11
[M:3/4] x6 | z2 B, B,2 [B,DF] | x6 |[M:5/8] z2 C C2 |[M:1/8] x |[M:3/4] x6 | x6 | x6 |[M:5/8] x5 |] %20

